X: 11520
T: Eddie Moloney's
R: reel
M: 4/4
K: Eminor
EF|GEEE cABG|ABGE A2 EF|GEEE cABG|ABGE D2:|
GA|Bdde dBGB|AcBG AGEG|Bdde dBGB|AAGE D2
GA|Bdde dBGB|AcBG AGEG|Bdde gedB|ABGE D2||

